X:165
T:Amaryllis. (p)1665.PLFD1.165
M:4/4
L:1/8
Q:1/2=90
S:Playford, Dancing Master,2nd Supp. to 3rd Ed.,1665
O:England;London
H:166
Z:Chris Partington.
K:G
d3 c B2 AG| A2 D2 G4|dedc BABG| A2 D2 G4|
dedc B2 AG| A2 D2 G4| dedc BABG| A2 D2 G4:|
|:A3 B c2 B2| c2 d2 e3 f| g2 f2 ga f2| e4 d4|
g3 f e2 d2| ed c2 B3 c| d2ed cB A2| G8 :|
